X:1
T:Title
%%score { 1 | 2 }
L:1/8
M:4/4
K:F
V:1 treble nm="Grand Piano"
V:2 bass 
V:1
 z4 z2 z[Q:1/4=110] F | A2 A2 B2 A2 | [FA]2 [EG]2 [EG]3 [EG] | [EG]2 [EG]2 [EA]2 [EG]2 | %4
 G2 F2 F3 F | A2 A2 c2 c2 | [DB]2 [B,D]2 [DA]2 [DG]2 | F2 C2 A2 F>[FA] | [EG]4 F4 | c2 A2 d2 A>A | %10
 [Fc]2 [F=B]2 [C_B]3 [EB] | [EB]2 G2 c2 [EG]>[EG] | B2 A2 A3 A | A2 F2 B2 A>A | %14
 [DG]2 [B,D]2 [DA]2 [DG]2 | F2 C2 A2 F>[FA] | %16
[M:17/16] [EG]/-[EG]/-[EG]/-[EG]/-[EG]-<[EG][A,F]/-[A,F]/-[A,F]/-[A,F]/-[A,F]/-[A,F]-<[A,F] |] %17
V:2
 z4 z2 z [F,A,] | [F,CF]2 [F,CF]2 [F,DF]2 [F,CF]2 | [C,C]2 [C,B,]2 [C,B,]3 [C,B,] | %3
 [C,B,]2 [C,B,]2 [C,C]2 [C,B,]2 | [F,B,D]2 [F,A,C]2 [F,A,C]3 [F,A,C] | %5
 [F,CF]2 [F,CF]2 [F,A,F]2 [F,A,_E]2 | [B,,B,]2 [B,,F,]2 [B,,F,]2 [B,,G,]2 | %7
 [C,A,C]2 [C,A,]2 [C,F,C]2 [C,A,C]>[C,C] | [C,B,]4 [F,A,]4 | [F,A,F]2 [F,C]2 [F,B,F]2 [F,C]>[F,C] | %10
 [C,A,]2 [D,_A,]2 [E,G,]3 [C,G,] | [C,G,]2 [E,C]2 [G,B,E]2 [C,B,]>[C,B,] | %12
 [F,DF]2 [F,CF]2 [F,CF]3 [F,CF] | [F,CF]2 [F,A,C]2 [F,DF]2 [F,CF]>[F,CF] | %14
 [B,,B,]2 [B,,F,]2 [B,,F,]2 [B,,G,]2 | [C,A,C]2 [C,A,]2 [C,F,C]2 [C,A,C]>[C,C] | %16
[M:17/16] [C,B,]/-[C,B,]/-[C,B,]/-[C,B,]/-[C,B,]-<[C,B,][F,,F,]/-[F,,F,]/-[F,,F,]/-[F,,F,]/-[F,,F,]/-[F,,F,]-<[F,,F,] |] %17

